packages/calcite-ui-icons/icons/topology-16.svg

<?xml version="1.0" encoding="UTF-8"?><svg id="icons" xmlns="http://www.w3.org/2000/svg" viewBox="0 0 16 16"><defs><style>.cls-1{fill:none;}</style></defs><path d="M16,4v-2h-2v1h-3v-1h-2v1H3v-1H1v2h1v4h-1v2h1v3h-1v2h2v-1h4v1h2v-1h5v1h2v-2h-1V4h1ZM3,4h5.73175l-1.76733,4h-3.96442v-4ZM3,13v-4h3v1h.57208l.66797,3H3ZM14,13h-5.73547l-.66797-3h.40344v-1.87756l1.82141-4.12244h4.17859v9Z"/><rect class="cls-1" width="16" height="16"/></svg>

<svg xmlns="http://www.w3.org/2000/svg" viewBox="0 0 16 16"><path d="M16 4V2h-2v1h-3V2H9v1H3V2H1v2h1v4H1v2h1v3H1v2h2v-1h4v1h2v-1h5v1h2v-2h-1V4zM3 4h5.732L6.964 8H3zm0 9V9h3v1h.572l.668 3zm11 0H8.265l-.668-3H8V8.122L9.821 4H14z"/><path d="M0 0h16v16H0z" style="fill:none"/></svg>
